X: 1
T: Fil et Bobine
C: Jean Blanchard
R: Bourrée
L: 1/8
M: 3/8
K: G
Z: ABC transcription by Verge Roller
|: B/c/ | "G" dgf | "C" e2 B/c/ | "D" d/e/d/c/B/A/ | "G" BGB/c/ |
"G" dgf | "C" e2 B/c/ | "D" d/e/d/c/B/A/ | "G" G2 :|
|: B/c/ | "G" d/B/G/e/c/A/ | "G" d/B/G/e/c/A/ | "D"d/e/d/c/B/A/ | "G" BGB/c/ |
"G" d/B/G/e/c/A/ | "G" d/B/G/e/c/A/ | "D" d/e/d/c/B/A/ | "G" G2 :|
r: 32
